X:1
T:Fife, 87.87.87.87.87
T:Fife, 87.87.87.87.87
T:Edwin Moore, 1896
T:Public Domain Courtesy of the Cyber Hymnal™
C:Edwin Moore, 1896
Z:Public Domain
Z:Courtesy of the Cyber Hymnal™
%%score ( 1 2 ) ( 3 4 )
L:1/8
Q:1/4=92
M:3/4
K:Bb
V:1 treble 
V:2 treble 
V:3 bass 
V:4 bass 
V:1
 [B,D]>[CE] | [DF]3 [Fd] [Ec]>[Fd] | [DB]2 [DF]2 [EG]>[DF] | [CE]3 [A,C] [DF]>[CE] | %4
 [B,D]4 [B,D]>[CE] | [DF]3 [Fd] [Ec]>[Fd] | [DB]2 [DF]2 [DF]>[FB] | [EA]3 [EA] [DB][Ec] | %8
 [DB]4 [CA]>[DB] | [Ec]3 [EF] [EG]>[EF] | [DF] [DB]3 [FB]>[Fc] | [Fd]3 [FB] [Fe][Fd] | %12
 [Fc]4 [Fd]>[Ec] | [DB]3 [Ec] [DB]F | [FA] [EG]3 [EG]>[EG] | [DF]3 [EG] [DF][CE] | %16
 [B,D]4 [Fd]>[Ec] | [DB]3 [FB] [Fc][_Ad] | [Gf] [Ge]3 [Gd]>[Gc] | [FB]3 [Fd] [Fd]>[Ec] | [DB]4 |] %21
V:2
 x2 | x6 | x6 | x6 | x6 | x6 | x6 | x6 | x6 | x6 | x6 | x6 | x6 | x5 F | x6 | x6 | x6 | x6 | x6 | %19
 x6 | x4 |] %21
V:3
 [B,,F,]>[B,,F,] | [B,,B,]3 [B,,B,] [B,,B,]>[B,,B,] | [B,,F,]2 [B,,B,]2 F,>F, | F,3 F, F,>F, | %4
 [B,,F,]4 [B,,F,]>[B,,F,] | [B,,B,]3 [B,,B,] [B,,B,]>[B,,B,] | [B,,F,]2 [B,,B,]2 [B,,B,]>[D,B,] | %7
 [F,C]3 [F,C] [F,B,][F,A,] | [B,,B,]4 F,>F, | F,3 [F,A,] [F,A,]>[F,A,] | %10
 [B,,B,] [B,,F,]3 [D,B,]>[F,A,] | B,3 [D,B,] [C,A,][B,,B,] | [F,A,]4 [B,,B,]>[B,,F,] | %13
 [B,,F,]3 [B,,F,] [B,,F,][D,B,] | [E,B,] [E,B,]3 [E,B,]>[E,B,] | [F,B,]3 [F,A,] [F,A,]F, | %16
 [B,,F,]4 [B,,B,]>[B,,F,] | [B,,F,]3 [D,B,] [F,A,]B, | [E,B,] [E,B,]3 [E,=B,]>[E,C] | %19
 [F,D]3 [F,B,] [F,B,]>[F,A,] | [B,,B,]4 |] %21
V:4
 x2 | x6 | x4 F,>F, | F,3 F, F,>F, | x6 | x6 | x6 | x6 | x4 F,>F, | F,3 x3 | x6 | B,3 x3 | x6 | %13
 x6 | x6 | x5 F, | x6 | x5 B, | x6 | x6 | x4 |] %21

